Numix-GalliumOS/16/mimetypes/application-presentation.svg

<?xml version="1.0" encoding="UTF-8" standalone="no"?>
<svg
   xmlns:dc="http://purl.org/dc/elements/1.1/"
   xmlns:cc="http://creativecommons.org/ns#"
   xmlns:rdf="http://www.w3.org/1999/02/22-rdf-syntax-ns#"
   xmlns:svg="http://www.w3.org/2000/svg"
   xmlns="http://www.w3.org/2000/svg"
   xmlns:sodipodi="http://sodipodi.sourceforge.net/DTD/sodipodi-0.dtd"
   xmlns:inkscape="http://www.inkscape.org/namespaces/inkscape"
   width="16"
   height="16"
   viewBox="0 0 16 16"
   id="svg2"
   version="1.1"
   inkscape:version="0.48.5 r10040"
   sodipodi:docname="application-presentation.svg">
  <metadata
     id="metadata26">
    <rdf:RDF>
      <cc:Work
         rdf:about="">
        <dc:format>image/svg+xml</dc:format>
        <dc:type
           rdf:resource="http://purl.org/dc/dcmitype/StillImage" />
      </cc:Work>
    </rdf:RDF>
  </metadata>
  <defs
     id="defs24" />
  <sodipodi:namedview
     pagecolor="#ffffff"
     bordercolor="#666666"
     borderopacity="1"
     objecttolerance="10"
     gridtolerance="10"
     guidetolerance="10"
     inkscape:pageopacity="0"
     inkscape:pageshadow="2"
     inkscape:window-width="1280"
     inkscape:window-height="970"
     id="namedview22"
     showgrid="true"
     inkscape:zoom="29.5"
     inkscape:cx="6.772491"
     inkscape:cy="4.3829467"
     inkscape:window-x="0"
     inkscape:window-y="0"
     inkscape:window-maximized="1"
     inkscape:current-layer="svg2">
    <inkscape:grid
       type="xygrid"
       id="grid3014" />
  </sodipodi:namedview>
  <path
     style="fill:#d14626;fill-opacity:1"
     d="M 2.667969,-4.458e-4 C 2.324219,-4.458e-4 2,0.3378122 2,0.6964469 L 2,15.303108 C 2,15.641365 2.34375,16 2.667969,16 l 10.664062,0 C 13.65625,16 14,15.641365 14,15.303108 L 14,3.999554 10,-4.458e-4 z"
     id="path4-6"
     inkscape:connector-curvature="0"
     sodipodi:nodetypes="ssssssccs" />
  <path
     style="fill:#000000;fill-opacity:0.19599998"
     d="m 10.583223,3.331585 0.0154,0.01953 0.04005,-0.01953 z m 0.02978,0.667969 3.387,3.664062 0,-3.664062 z"
     id="path6"
     inkscape:connector-curvature="0"
     sodipodi:nodetypes="cccccccc" />
  <path
     style="fill:#ffffff;fill-opacity:0.39200003"
     d="m 10,-4.458e-4 3.996396,3.9999998 -3.383784,0 C 10.313513,3.999554 10,3.682437 10,3.383338 z"
     id="path8"
     inkscape:connector-curvature="0"
     sodipodi:nodetypes="ccssc" />
  <path
     style="fill:#ffffff"
     inkscape:connector-curvature="0"
     id="path12"
     d="M 4,5 6,5 6,7 4,7 z" />
  <path
     style="fill:#ffffff"
     inkscape:connector-curvature="0"
     id="path14"
     d="m 4,8 2,0 0,2 -2,0 z" />
  <path
     style="fill:#ffffff"
     inkscape:connector-curvature="0"
     id="path16"
     d="m 4,11 8,0 0,1 -8,0 z" />
  <path
     style="fill:#ffffff"
     inkscape:connector-curvature="0"
     id="path18"
     d="m 10,5 0,2 2,0 C 12,6 11,5 10,5 z"
     sodipodi:nodetypes="cccc" />
  <path
     style="fill:#ffffff"
     inkscape:connector-curvature="0"
     id="path20"
     d="m 9,5.6461578 c -1.2901857,0 -2,0.9235803 -2,2.1799251 C 7,9.0824277 8.0448394,10.097656 9.3350251,10.097656 10.620981,10.097656 11.68979,9.2563448 11.68979,8 L 9,8 z"
     sodipodi:nodetypes="cssccc" />
</svg>

<svg xmlns="http://www.w3.org/2000/svg" viewBox="0 0 16 16">
 <path d="m 2.668 0 c -0.344 0 -0.668 0.338 -0.668 0.697 l 0 14.607 c 0 0.338 0.344 0.697 0.668 0.697 l 10.664 0 c 0.324 0 0.668 -0.359 0.668 -0.697 l 0 -11.304 -4 -4 z" style="fill:#d14626;fill-opacity:1"/>
 <path d="m 10.583 3.332 0.015 0.02 0.04 -0.02 z m 0.03 0.668 3.387 3.664 0 -3.664 z" style="fill:#000;fill-opacity:0.196"/>
 <path d="m 10 0 3.996 4 -3.384 0 c -0.299 0 -0.613 -0.317 -0.613 -0.616 z" style="fill:#fff;fill-opacity:0.392"/>
 <path d="M 4,5 6,5 6,7 4,7 z" style="fill:#fff"/>
 <path d="m 4 8 2 0 0 2 -2 0 z" style="fill:#fff"/>
 <path d="m 4 11 8 0 0 1 -8 0 z" style="fill:#fff"/>
 <path d="m 10,5 0,2 2,0 C 12,6 11,5 10,5 z" style="fill:#fff"/>
 <path d="m 9 5.646 c -1.29 0 -2 0.924 -2 2.18 c 0 1.256 1.045 2.272 2.335 2.272 1.286 0 2.355 -0.841 2.355 -2.098 l -2.69 0 z" style="fill:#fff"/>
</svg>
